X:38
T:Klappdans fr\aa Henning
S:Nordahl Grieg Leikarring og Spelemannslag
R:Turdans
O:Norway
L:1/8
Q:1/4=100
M:2/4
K:G
% %rightmargin 11.5cm
"Intro"| "G"db af | gg g2
% %rightmargin 2.78cm
%P:A
|:\
"G"BB/c/ B/A/B/c/ | dd/e/d2 | db "D7"a2 | ca "G"g2 |
"G"BB/c/ B/A/B/c/ | dd/e/d2 | db "D7"af | gg g2 :|
%P:B
|:\
"G"Kb2 Kg2 | dd d2 | Kb2 Kg2 | dd d2 |
"C"c'c' c'd'/c'/ | bb b z | aa g/f/e/f/ | gg g2 :|

